X:1
T: Miss Barbara Stewart of West Park
C:William Marshall
R:Strathspey
Q: 128
K:C
M:4/4
L:1/16
|:c4 G3c EC3 G4|d4 A3d FD3 A4|c4 G3c EC3 G3E|Dd3 d3e f3e d3c|
c4 G3c EC3 G4|d4 A3d FD3 A4|c4 G3c EC3 G3E|Dd3 d3e f3e d3c|
cg3 eg3 cg3 e4|fa3 d3e f3g a3f|ec3 g3e a3g f3e|dB3 G3B c4 c4|
cg3 eg3 e3g c3e|fa3 d3e f3g a3f|e3f g3e af3 d3c|BG3 A3B c4 c4:|
